;FLAVOR:Marlin
;TIME:4993
;Filament used: 1.56513m
;Layer height: 0.2
;MINX:81.02
;MINY:81.069
;MINZ:0.2
;MAXX:138.981
;MAXY:139.031
;MAXZ:9
;Generated with Cura_SteamEngine 4.11.0
M140 S60
M105
M190 S60
M104 S225
M105
M109 S225
M82 ;absolute extrusion mode
; Ender 3 Custom Start G-code
G92 E0 ; Reset Extruder
G28 ; Home all axes
G1 Z2.0 F3000 ; Move Z Axis up little to prevent scratching of Heat Bed
G1 X0.1 Y20 Z0.3 F5000.0 ; Move to start position
G1 X0.1 Y200.0 Z0.3 F1500.0 E15 ; Draw the first line
G1 X0.4 Y200.0 Z0.3 F5000.0 ; Move to side a little
G1 X0.4 Y20 Z0.3 F1500.0 E30 ; Draw the second line
G92 E0 ; Reset Extruder
G1 Z2.0 F3000 ; Move Z Axis up little to prevent scratching of Heat Bed
G1 X5 Y20 Z0.3 F5000.0 ; Move over to prevent blob squish
G92 E0
G92 E0
G1 F1500 E-6
;LAYER_COUNT:45
;LAYER:0
M107
M204 S500
M205 X8 Y8
G0 F7500 X86.545 Y87.11 Z0.2
;TYPE:SKIRT
G1 F1500 E0
G1 X87.208 Y86.462 E0.02197
G1 X87.687 Y86.057 E0.03683
G1 X88.397 Y85.492 E0.05834
G1 X89.168 Y84.9 E0.08137
G1 X89.825 Y84.41 E0.1008
G1 X90.592 Y83.889 E0.12277
G1 X91.401 Y83.437 E0.14473
G1 X91.946 Y83.181 E0.159
G1 X92.775 Y82.82 E0.18043
G1 X93.641 Y82.46 E0.20265
G1 X94.434 Y82.143 E0.22289
G1 X95.309 Y81.838 E0.24485
G1 X96.208 Y81.61 E0.26683
G1 X96.803 Y81.503 E0.28115
G1 X97.868 Y81.344 E0.30667
G1 X98.637 Y81.242 E0.32506
G1 X99.505 Y81.14 E0.34577
G1 X100.429 Y81.072 E0.36772
G1 X101.623 Y81.102 E0.39603
G1 X102.735 Y81.192 E0.42247
G1 X105.334 Y81.367 E0.4842
G1 X107.859 Y81.465 E0.54408
G1 X110.365 Y81.49 E0.60347
G1 X112.897 Y81.446 E0.66348
G1 X115.398 Y81.33 E0.72281
G1 X118.031 Y81.133 E0.78538
G1 X118.249 Y81.113 E0.79057
G1 X119.175 Y81.069 E0.81254
G1 X120.435 Y81.138 E0.84244
G1 X121.34 Y81.241 E0.86403
G1 X122.441 Y81.386 E0.89034
G1 X123.079 Y81.478 E0.90562
G1 X123.99 Y81.65 E0.92759
G1 X124.883 Y81.899 E0.94956
G1 X125.491 Y82.118 E0.96487
G1 X126.378 Y82.468 E0.98747
G1 X127.226 Y82.818 E1.00921
G1 X127.955 Y83.13 E1.028
G1 X128.79 Y83.532 E1.04996
G1 X129.588 Y84.004 E1.07194
G1 X130.108 Y84.366 E1.08695
G1 X130.853 Y84.917 E1.10891
G1 X131.703 Y85.568 E1.13428
G1 X132.228 Y85.981 E1.15011
G1 X132.931 Y86.585 E1.17208
G1 X133.579 Y87.248 E1.19405
G1 X133.999 Y87.744 E1.20945
G1 X134.578 Y88.473 E1.23151
G1 X135.229 Y89.32 E1.25682
G1 X135.633 Y89.862 E1.27284
G1 X136.155 Y90.629 E1.29483
G1 X136.608 Y91.438 E1.3168
G1 X136.87 Y91.995 E1.33139
G1 X137.238 Y92.84 E1.35323
G1 X137.584 Y93.671 E1.37456
G1 X137.647 Y93.824 E1.37848
G1 X137.91 Y94.487 E1.39539
G1 X138.214 Y95.363 E1.41736
G1 X138.442 Y96.262 E1.43934
G1 X138.546 Y96.84 E1.45326
G1 X138.682 Y97.737 E1.47476
G1 X138.811 Y98.706 E1.49792
G1 X138.911 Y99.553 E1.51813
G1 X138.979 Y100.478 E1.54011
G1 X138.949 Y101.669 E1.56835
G1 X138.857 Y102.811 E1.5955
G1 X138.683 Y105.4 E1.65699
G1 X138.585 Y107.936 E1.71713
G1 X138.561 Y110.435 E1.77636
G1 X138.606 Y112.976 E1.83658
G1 X138.722 Y115.475 E1.89587
G1 X138.916 Y118.064 E1.95739
G1 X138.939 Y118.324 E1.96358
G1 X138.981 Y119.251 E1.98557
G1 X138.912 Y120.486 E2.01488
G1 X138.789 Y121.557 E2.04043
G1 X138.663 Y122.506 E2.06311
G1 X138.569 Y123.15 E2.07854
G1 X138.396 Y124.06 E2.10049
G1 X138.145 Y124.953 E2.12247
G1 X137.937 Y125.53 E2.13701
G1 X137.604 Y126.377 E2.15857
G1 X137.252 Y127.23 E2.18044
G1 X136.91 Y128.026 E2.20097
G1 X136.507 Y128.86 E2.22292
G1 X136.033 Y129.657 E2.2449
G1 X135.679 Y130.166 E2.25959
G1 X135.021 Y131.053 E2.28576
G1 X134.481 Y131.754 E2.30673
G1 X134.059 Y132.289 E2.32288
G1 X133.454 Y132.991 E2.34484
G1 X132.791 Y133.639 E2.36681
G1 X132.313 Y134.043 E2.38164
G1 X131.603 Y134.608 E2.40315
G1 X130.845 Y135.191 E2.42581
G1 X130.179 Y135.688 E2.4455
G1 X129.412 Y136.209 E2.46747
G1 X128.603 Y136.661 E2.48943
G1 X128.054 Y136.919 E2.50381
G1 X127.225 Y137.28 E2.52524
G1 X126.377 Y137.633 E2.547
G1 X125.564 Y137.957 E2.56774
G1 X124.689 Y138.262 E2.5897
G1 X123.79 Y138.491 E2.61169
G1 X123.197 Y138.597 E2.62596
G1 X122.132 Y138.756 E2.65148
G1 X121.363 Y138.858 E2.66986
G1 X120.495 Y138.96 E2.69058
G1 X119.571 Y139.028 E2.71253
G1 X118.377 Y138.998 E2.74084
G1 X117.265 Y138.908 E2.76727
G1 X114.666 Y138.733 E2.829
G1 X112.141 Y138.635 E2.88889
G1 X109.635 Y138.61 E2.94828
G1 X107.103 Y138.654 E3.00829
G1 X104.602 Y138.77 E3.06762
G1 X101.969 Y138.967 E3.13019
G1 X101.751 Y138.987 E3.13538
G1 X100.825 Y139.031 E3.15735
G1 X99.565 Y138.962 E3.18725
G1 X98.66 Y138.859 E3.20884
G1 X97.559 Y138.714 E3.23515
G1 X96.921 Y138.622 E3.25043
G1 X96.01 Y138.45 E3.2724
G1 X95.117 Y138.201 E3.29437
G1 X94.509 Y137.982 E3.30968
G1 X93.622 Y137.632 E3.33228
G1 X92.774 Y137.282 E3.35402
G1 X92.045 Y136.97 E3.37281
G1 X91.21 Y136.568 E3.39477
G1 X90.412 Y136.096 E3.41674
G1 X89.886 Y135.73 E3.43193
G1 X89.119 Y135.162 E3.45455
G1 X88.297 Y134.532 E3.47909
G1 X87.772 Y134.119 E3.49492
G1 X87.069 Y133.515 E3.51688
G1 X86.421 Y132.852 E3.53885
G1 X86.002 Y132.357 E3.55422
G1 X85.288 Y131.456 E3.58147
G1 X84.771 Y130.78 E3.60163
G1 X84.367 Y130.238 E3.61765
G1 X83.845 Y129.471 E3.63964
G1 X83.392 Y128.662 E3.66161
G1 X83.13 Y128.106 E3.67618
G1 X82.755 Y127.245 E3.69843
G1 X82.414 Y126.425 E3.71948
G1 X82.093 Y125.619 E3.74004
G1 X81.788 Y124.743 E3.76202
G1 X81.559 Y123.845 E3.78398
G1 X81.452 Y123.247 E3.79838
G1 X81.315 Y122.335 E3.82023
G1 X81.192 Y121.41 E3.84235
G1 X81.089 Y120.535 E3.86323
G1 X81.022 Y119.611 E3.88518
G1 X81.052 Y118.421 E3.91339
G1 X81.145 Y117.279 E3.94054
G1 X81.314 Y114.778 E3.99994
G1 X81.414 Y112.218 E4.06066
G1 X81.44 Y109.712 E4.12005
G1 X81.397 Y107.214 E4.17925
G1 X81.28 Y104.67 E4.2396
G1 X81.086 Y102.053 E4.30179
G1 X81.061 Y101.769 E4.30855
G1 X81.02 Y100.843 E4.33051
G1 X81.089 Y99.612 E4.35973
G1 X81.216 Y98.51 E4.38602
G1 X81.336 Y97.606 E4.40763
G1 X81.428 Y96.969 E4.42288
G1 X81.6 Y96.058 E4.44485
G1 X81.85 Y95.165 E4.46683
G1 X82.067 Y94.564 E4.48197
G1 X82.487 Y93.502 E4.50903
G1 X82.82 Y92.701 E4.52959
G1 X83.08 Y92.095 E4.54522
G1 X83.482 Y91.26 E4.56718
G1 X83.954 Y90.462 E4.58915
G1 X84.316 Y89.942 E4.60417
G1 X84.867 Y89.197 E4.62613
G1 X85.442 Y88.446 E4.64854
G1 X85.94 Y87.813 E4.66763
G1 X86.545 Y87.11 E4.68961
G0 F7500 X86.772 Y87.306
G1 F1500 X87.427 Y86.668 E4.71127
G1 X87.874 Y86.292 E4.72512
G1 X88.584 Y85.727 E4.74662
G1 X89.35 Y85.138 E4.76952
G1 X90.004 Y84.65 E4.78886
G1 X90.76 Y84.138 E4.81049
G1 X91.559 Y83.693 E4.83217
G1 X92.066 Y83.456 E4.84543
G1 X92.895 Y83.095 E4.86686
G1 X93.756 Y82.737 E4.88895
G1 X94.544 Y82.422 E4.90906
G1 X95.408 Y82.122 E4.93074
G1 X96.294 Y81.898 E4.9524
G1 X96.848 Y81.8 E4.96573
G1 X97.907 Y81.642 E4.9911
G1 X98.838 Y81.52 E5.01335
G1 X99.54 Y81.438 E5.0301
G1 X100.451 Y81.371 E5.05175
G1 X101.599 Y81.401 E5.07896
G1 X102.763 Y81.496 E5.10664
G1 X105.302 Y81.667 E5.16694
G1 X107.845 Y81.765 E5.22725
G1 X110.367 Y81.79 E5.28702
G1 X112.882 Y81.746 E5.34663
G1 X115.433 Y81.628 E5.40715
G1 X118.081 Y81.43 E5.47008
G1 X118.276 Y81.412 E5.47472
G1 X119.189 Y81.369 E5.49638
G1 X120.401 Y81.436 E5.52514
G1 X121.306 Y81.539 E5.54673
G1 X122.283 Y81.667 E5.57008
G1 X123.036 Y81.775 E5.5881
G1 X123.935 Y81.945 E5.60979
G1 X124.815 Y82.193 E5.63145
G1 X125.381 Y82.397 E5.64571
G1 X126.268 Y82.747 E5.66831
G1 X127.111 Y83.095 E5.68992
G1 X127.836 Y83.406 E5.70862
G1 X128.66 Y83.802 E5.73028
G1 X129.445 Y84.27 E5.75194
G1 X129.93 Y84.607 E5.76593
G1 X130.675 Y85.158 E5.78789
G1 X131.421 Y85.729 E5.81016
G1 X132.042 Y86.217 E5.82887
G1 X132.735 Y86.813 E5.85053
G1 X133.373 Y87.467 E5.87218
G1 X133.764 Y87.931 E5.88656
G1 X134.448 Y88.794 E5.91266
G1 X134.989 Y89.5 E5.93374
G1 X135.393 Y90.042 E5.94976
G1 X135.906 Y90.798 E5.97141
G1 X136.352 Y91.596 E5.99307
G1 X136.595 Y92.115 E6.00665
G1 X137.035 Y93.129 E6.03285
G1 X137.368 Y93.935 E6.05351
G1 X137.631 Y94.598 E6.07042
G1 X137.93 Y95.461 E6.09206
G1 X138.153 Y96.348 E6.11373
G1 X138.249 Y96.885 E6.12666
G1 X138.385 Y97.782 E6.14816
G1 X138.414 Y97.985 E6.15302
G1 X138.514 Y98.745 E6.17119
G1 X138.613 Y99.588 E6.1913
G1 X138.68 Y100.5 E6.21297
G1 X138.65 Y101.645 E6.24012
G1 X138.559 Y102.768 E6.26682
G1 X138.383 Y105.403 E6.3294
G1 X138.285 Y107.922 E6.38914
G1 X138.261 Y110.438 E6.44877
G1 X138.306 Y112.96 E6.50854
G1 X138.424 Y115.51 E6.56903
G1 X138.619 Y118.118 E6.63101
G1 X138.64 Y118.351 E6.63656
G1 X138.681 Y119.264 E6.65821
G1 X138.614 Y120.453 E6.68643
G1 X138.492 Y121.518 E6.71184
G1 X138.387 Y122.316 E6.73091
G1 X138.272 Y123.106 E6.74983
G1 X138.101 Y124.004 E6.77149
G1 X137.852 Y124.884 E6.79317
G1 X137.657 Y125.421 E6.80671
G1 X137.252 Y126.447 E6.83284
G1 X136.919 Y127.248 E6.8534
G1 X136.635 Y127.907 E6.87041
G1 X136.237 Y128.73 E6.89207
G1 X135.768 Y129.515 E6.91374
G1 X135.438 Y129.988 E6.92741
G1 X134.894 Y130.723 E6.94908
G1 X134.33 Y131.46 E6.97107
G1 X133.824 Y132.103 E6.99046
G1 X133.227 Y132.795 E7.01212
G1 X132.572 Y133.433 E7.03379
G1 X132.126 Y133.808 E7.0476
G1 X131.267 Y134.49 E7.07359
G1 X130.543 Y135.043 E7.09518
G1 X130 Y135.447 E7.11122
G1 X129.243 Y135.96 E7.13289
G1 X128.445 Y136.405 E7.15454
G1 X127.934 Y136.644 E7.16791
G1 X127.105 Y137.005 E7.18934
G1 X126.262 Y137.356 E7.21098
G1 X125.453 Y137.679 E7.23162
G1 X124.59 Y137.979 E7.25327
G1 X123.704 Y138.202 E7.27492
G1 X123.152 Y138.3 E7.28821
G1 X122.093 Y138.458 E7.31358
G1 X121.162 Y138.58 E7.33583
G1 X120.46 Y138.662 E7.35258
G1 X119.549 Y138.729 E7.37423
G1 X118.401 Y138.699 E7.40144
G1 X117.237 Y138.604 E7.42912
G1 X114.698 Y138.433 E7.48942
G1 X112.155 Y138.335 E7.54973
G1 X109.633 Y138.31 E7.6095
G1 X107.118 Y138.354 E7.66911
G1 X104.567 Y138.472 E7.72963
G1 X101.919 Y138.67 E7.79256
G1 X101.724 Y138.688 E7.7972
G1 X100.811 Y138.731 E7.81886
G1 X99.599 Y138.664 E7.84762
G1 X98.694 Y138.561 E7.86921
G1 X97.717 Y138.433 E7.89256
G1 X96.964 Y138.325 E7.91059
G1 X96.065 Y138.155 E7.93227
G1 X95.185 Y137.907 E7.95393
G1 X94.619 Y137.703 E7.96819
G1 X93.732 Y137.353 E7.99079
G1 X92.889 Y137.005 E8.0124
G1 X92.164 Y136.694 E8.0311
G1 X91.34 Y136.298 E8.05276
G1 X90.555 Y135.83 E8.07442
G1 X90.065 Y135.489 E8.08857
G1 X89.298 Y134.921 E8.11118
G1 X88.483 Y134.296 E8.13552
G1 X87.958 Y133.883 E8.15135
G1 X87.265 Y133.287 E8.17301
G1 X86.627 Y132.633 E8.19466
G1 X86.237 Y132.17 E8.20901
G1 X85.526 Y131.273 E8.23614
G1 X85.011 Y130.6 E8.25622
G1 X84.607 Y130.058 E8.27224
G1 X84.094 Y129.302 E8.29389
G1 X83.648 Y128.504 E8.31555
G1 X83.405 Y127.986 E8.32911
G1 X83.03 Y127.125 E8.35137
G1 X82.691 Y126.31 E8.37228
G1 X82.371 Y125.508 E8.39275
G1 X82.071 Y124.645 E8.4144
G1 X81.848 Y123.758 E8.43607
G1 X81.749 Y123.202 E8.44946
G1 X81.585 Y122.101 E8.47584
G1 X81.47 Y121.215 E8.49701
G1 X81.387 Y120.501 E8.51404
G1 X81.321 Y119.589 E8.53571
G1 X81.351 Y118.446 E8.56281
G1 X81.444 Y117.304 E8.58996
G1 X81.615 Y114.774 E8.65005
G1 X81.714 Y112.234 E8.71029
G1 X81.74 Y109.71 E8.77011
G1 X81.697 Y107.195 E8.82972
G1 X81.579 Y104.635 E8.89045
G1 X81.384 Y102.011 E8.9528
G1 X81.36 Y101.743 E8.95918
G1 X81.32 Y100.829 E8.98086
G1 X81.387 Y99.646 E9.00894
G1 X81.491 Y98.733 E9.03071
G1 X81.633 Y97.649 E9.05662
G1 X81.725 Y97.012 E9.07187
G1 X81.895 Y96.114 E9.09353
G1 X82.143 Y95.234 E9.1152
G1 X82.346 Y94.674 E9.12931
G1 X82.764 Y93.617 E9.15625
G1 X83.096 Y92.82 E9.17671
G1 X83.356 Y92.214 E9.19234
G1 X83.752 Y91.39 E9.214
G1 X84.22 Y90.605 E9.23566
G1 X84.557 Y90.12 E9.24966
G1 X85.108 Y89.375 E9.27162
G1 X85.679 Y88.629 E9.29388
G1 X86.175 Y87.998 E9.3129
G1 X86.772 Y87.306 E9.33456
G0 F7500 X87 Y87.502
G1 F1500 X87.646 Y86.875 E9.35589
G1 X88.061 Y86.527 E9.36873
G1 X88.771 Y85.962 E9.39023
G1 X89.652 Y85.285 E9.41656
G1 X90.182 Y84.891 E9.43221
G1 X90.929 Y84.386 E9.45358
G1 X91.717 Y83.95 E9.47492
G1 X92.186 Y83.731 E9.48718
G1 X93.015 Y83.37 E9.50861
G1 X93.871 Y83.014 E9.53058
G1 X94.655 Y82.701 E9.55059
G1 X95.506 Y82.406 E9.57193
G1 X96.38 Y82.187 E9.59328
G1 X96.893 Y82.096 E9.60563
G1 X97.946 Y81.939 E9.63086
G1 X98.715 Y81.837 E9.64924
G1 X99.574 Y81.736 E9.66974
G1 X100.473 Y81.671 E9.6911
G1 X101.574 Y81.7 E9.7172
G1 X102.714 Y81.793 E9.7443
G1 X105.306 Y81.967 E9.80587
G1 X107.83 Y82.064 E9.86573
G1 X110.37 Y82.091 E9.92592
G1 X112.9 Y82.046 E9.98589
G1 X115.436 Y81.928 E10.04605
G1 X118.064 Y81.732 E10.1085
G1 X118.303 Y81.71 E10.11419
G1 X119.203 Y81.669 E10.13554
G1 X120.367 Y81.734 E10.16317
G1 X121.46 Y81.86 E10.18924
G1 X122.356 Y81.98 E10.21066
G1 X122.994 Y82.072 E10.22594
G1 X123.879 Y82.24 E10.24728
G1 X124.745 Y82.486 E10.26862
G1 X125.271 Y82.676 E10.28187
G1 X126.158 Y83.026 E10.30447
G1 X126.996 Y83.372 E10.32595
G1 X127.718 Y83.681 E10.34456
G1 X128.529 Y84.073 E10.36591
G1 X129.303 Y84.535 E10.38727
G1 X129.752 Y84.848 E10.40024
G1 X130.497 Y85.399 E10.4222
G1 X131.239 Y85.967 E10.44435
G1 X131.857 Y86.453 E10.46298
G1 X132.539 Y87.04 E10.4843
G1 X133.167 Y87.687 E10.50567
G1 X133.529 Y88.117 E10.51899
G1 X134.21 Y88.977 E10.54499
G1 X134.748 Y89.679 E10.56594
G1 X135.152 Y90.221 E10.58196
G1 X135.658 Y90.967 E10.60333
G1 X136.096 Y91.754 E10.62467
G1 X136.32 Y92.234 E10.63722
G1 X136.688 Y93.079 E10.65906
G1 X137.03 Y93.9 E10.68014
G1 X137.352 Y94.708 E10.70075
G1 X137.646 Y95.56 E10.72211
G1 X137.865 Y96.434 E10.74346
G1 X137.952 Y96.929 E10.75537
G1 X138.088 Y97.826 E10.77687
G1 X138.116 Y98.024 E10.78161
G1 X138.234 Y98.93 E10.80326
G1 X138.315 Y99.623 E10.8198
G1 X138.38 Y100.521 E10.84114
G1 X138.351 Y101.62 E10.86719
G1 X138.256 Y102.79 E10.89501
G1 X138.083 Y105.373 E10.95635
G1 X137.987 Y107.872 E11.01562
G1 X137.961 Y110.476 E11.07733
G1 X138.006 Y112.98 E11.13668
G1 X138.124 Y115.513 E11.19677
G1 X138.321 Y118.152 E11.25949
G1 X138.341 Y118.377 E11.26484
G1 X138.381 Y119.277 E11.28619
G1 X138.316 Y120.419 E11.31329
G1 X138.194 Y121.479 E11.33858
G1 X138.07 Y122.419 E11.36105
G1 X137.976 Y123.063 E11.37647
G1 X137.806 Y123.948 E11.39783
G1 X137.559 Y124.814 E11.41917
G1 X137.378 Y125.311 E11.4317
G1 X136.975 Y126.332 E11.45772
G1 X136.643 Y127.129 E11.47818
G1 X136.359 Y127.788 E11.49518
G1 X135.966 Y128.599 E11.51654
G1 X135.503 Y129.371 E11.53787
G1 X135.196 Y129.809 E11.55055
G1 X134.545 Y130.687 E11.57645
G1 X134.01 Y131.382 E11.59723
G1 X133.588 Y131.917 E11.61338
G1 X132.999 Y132.599 E11.63474
G1 X132.353 Y133.226 E11.65607
G1 X131.939 Y133.573 E11.66887
G1 X131.084 Y134.252 E11.69474
G1 X130.364 Y134.802 E11.71622
G1 X129.821 Y135.206 E11.73225
G1 X129.075 Y135.711 E11.7536
G1 X128.287 Y136.149 E11.77497
G1 X127.814 Y136.369 E11.78733
G1 X126.818 Y136.801 E11.81306
G1 X126.01 Y137.135 E11.83378
G1 X125.343 Y137.4 E11.85078
G1 X124.491 Y137.695 E11.87215
G1 X123.618 Y137.913 E11.89347
G1 X123.107 Y138.004 E11.90577
G1 X122.054 Y138.161 E11.931
G1 X121.285 Y138.263 E11.94939
G1 X120.426 Y138.364 E11.96988
G1 X119.527 Y138.429 E11.99124
G1 X118.426 Y138.4 E12.01734
G1 X117.286 Y138.307 E12.04445
G1 X114.694 Y138.133 E12.10601
G1 X112.17 Y138.036 E12.16587
G1 X109.63 Y138.009 E12.22607
G1 X107.1 Y138.054 E12.28603
G1 X104.564 Y138.172 E12.34619
G1 X101.936 Y138.368 E12.40865
G1 X101.697 Y138.39 E12.41433
G1 X100.797 Y138.431 E12.43568
G1 X99.633 Y138.366 E12.46331
G1 X98.54 Y138.24 E12.48938
G1 X97.644 Y138.12 E12.51081
G1 X97.006 Y138.028 E12.52608
G1 X96.121 Y137.86 E12.54743
G1 X95.255 Y137.614 E12.56876
G1 X94.729 Y137.424 E12.58202
G1 X93.842 Y137.074 E12.60461
G1 X93.004 Y136.728 E12.6261
G1 X92.282 Y136.419 E12.64471
G1 X91.471 Y136.027 E12.66606
G1 X90.697 Y135.565 E12.68742
G1 X90.243 Y135.248 E12.70054
G1 X89.476 Y134.68 E12.72316
G1 X88.668 Y134.06 E12.74729
G1 X88.143 Y133.647 E12.76312
G1 X87.461 Y133.06 E12.78445
G1 X86.833 Y132.413 E12.80581
G1 X86.472 Y131.984 E12.8191
G1 X85.764 Y131.091 E12.84611
G1 X85.252 Y130.421 E12.86609
G1 X84.848 Y129.879 E12.88211
G1 X84.342 Y129.133 E12.90347
G1 X83.904 Y128.346 E12.92481
G1 X83.68 Y127.866 E12.93737
G1 X83.305 Y127.005 E12.95962
G1 X82.968 Y126.195 E12.98041
G1 X82.65 Y125.397 E13.00077
G1 X82.355 Y124.546 E13.02211
G1 X82.137 Y123.672 E13.04346
G1 X82.046 Y123.158 E13.05583
G1 X81.909 Y122.246 E13.07769
G1 X81.787 Y121.331 E13.09956
G1 X81.685 Y120.466 E13.1202
G1 X81.621 Y119.567 E13.14156
G1 X81.65 Y118.47 E13.16757
G1 X81.739 Y117.371 E13.19369
